images/icons/v2/info-solid-24.svg

<svg height="24" viewBox="0 0 24 24" width="24" xmlns="http://www.w3.org/2000/svg"><path d="m12 1a11 11 0 1 0 11 11 11 11 0 0 0 -11-11zm-1.06 4.939a1.5 1.5 0 0 1 2.56 1.061 1.5 1.5 0 0 1 -2.56 1.06 1.5 1.5 0 0 1 0-2.121zm4.06 12.061h-6v-1.5h2.5v-5h-2v-1.5h3.5v6.5h2z"/></svg>

<svg xmlns="http://www.w3.org/2000/svg" width="24" height="24" viewBox="0 0 24 24"><title>info-solid-24</title><path d="M12,1A11,11,0,1,0,23,12,11,11,0,0,0,12,1ZM10.94,5.939A1.5,1.5,0,0,1,13.5,7a1.5,1.5,0,0,1-2.56,1.06,1.5,1.5,0,0,1,0-2.121ZM15,18H9V16.5h2.5v-5h-2V10H13v6.5h2Z"/></svg>
